X: 1
T: Bill Sutherland's March
M: 4/4
L: 1/8
R: barndance
K: Dmaj
|: (3ABc | d2 F2 A2 F2 | d2 F2 A2 B>c | d2 F2 B>AG>F | G2 E2 E3 F | 
G2 E2 B2 E2 | G2 E2 B3 f |1 g>fe>d c>de>d | (3cdc A2 B2 :|
2 c>BA>B c>de>c | d2 d2 d2 ||
|: (3ABc | d2 f>a g>fe>d | d2 f2 f3 e | d2 f>a g>fe>d | c2 e2 e3 d |  
c2 A2 e2 A>d | c2 A2 e3 f  |1 g>fe>d c>de>d | (3cdc A2 B3 c :|
2 g>fe>d c>de>c | d2 d2 d2 ||
